src/components/Icon/utils/svgsOptimized/close.svg

<?xml version="1.0" encoding="utf-8"?><svg width="24" height="24" xmlns="http://www.w3.org/2000/svg" viewBox="0 0 24 24"><path d="m13.07 12 3.33-3.33c.13-.13.13-.34 0-.48l-.59-.59a.344.344 0 0 0-.48 0L12 10.93 8.67 7.6a.344.344 0 0 0-.48 0l-.59.59c-.13.13-.13.34 0 .48L10.93 12 7.6 15.33c-.13.13-.13.34 0 .48l.59.59c.13.13.34.13.48 0L12 13.07l3.33 3.33c.13.13.34.13.48 0l.59-.59c.13-.13.13-.34 0-.48L13.07 12Z"/></svg>

<svg width="24" height="24" viewBox="0 0 24 24"  xmlns="http://www.w3.org/2000/svg">
<path d="M13.07 12L16.4 8.67C16.53 8.54 16.53 8.33 16.4 8.19L15.81 7.6C15.68 7.47 15.47 7.47 15.33 7.6L12 10.93L8.67 7.6C8.54 7.47 8.33 7.47 8.19 7.6L7.6 8.19C7.47 8.32 7.47 8.53 7.6 8.67L10.93 12L7.6 15.33C7.47 15.46 7.47 15.67 7.6 15.81L8.19 16.4C8.32 16.53 8.53 16.53 8.67 16.4L12 13.07L15.33 16.4C15.46 16.53 15.67 16.53 15.81 16.4L16.4 15.81C16.53 15.68 16.53 15.47 16.4 15.33L13.07 12Z" />
</svg>
